X: 1831
T: The Dear Little Island
M:6/8
L:1/8
B:O'Neill's 1831
Z:"Transcribed by Bob Safranek, rjs@gsp.org"
K:G
(d/"Segno"c/) | B2 B  Bgf | e2 e efg | d>ed dcB | BAA A2 (d/c/) |
                   B2 B  Bgf | e2 e efg | ded  cBA | AGG G2        ||
     (g/a/)      | b2 g a2 f | gfe  dcB | cde  dgB | BAA A2 (g/a/) |
                   b2 g a2 f | gfe  agf | bag  fge | dgf ed"   D.S."c |]


